!!!COM: Lassus, Orlandus
!!!OPR: Novae aliquot et ante hac non ita usitatae cantiones suavissimae
!!!ONM: 12
!!!OTL@@LA: Sicut rosa
**kern	**text	**kern	**text
*staff2	*staff2	*staff1	*staff1
*I"Bassus	*	*I"Tenor	*
*I'B	*	*I'T	*
*clefF4	*	*clefC4	*
*mclefF4	*	*mclefGv2	*
*k[]	*	*k[]	*
*G:mix	*	*G:mix	*
*M2/1	*	*M2/1	*
*met(C|)	*	*met(C|)	*
*MM180	*	*MM180	*
=1	=1	=1	=1
2r	.	2.G	Sic-
1G	Sic-	.	.
.	.	4A	.
.	.	4B	.
.	.	4c	.
2G	-ut	4d	.
.	.	4B	.
=2	=2	=2	=2
4C	ro-	1e	.
4D	.	.	.
4E	.	.	.
4F	.	.	.
2.G	.	2d	-ut
.	.	1B	ro-
4F	.	.	.
=3	=3	=3	=3
1E	.	.	.
.	.	2e.	.
1C	-sa,	.	.
.	.	4d	.
.	.	2c	.
=4	=4	=4	=4
2.GG	sic-	2B	-sa,
.	.	1d	sic-
4AA	.	.	.
4BB	.	.	.
4C	.	.	.
4D	.	2d	-ut
4BB	.	.	.
=5	=5	=5	=5
1E	.	4G	ro-
.	.	4A	.
.	.	4B	.
.	.	4c	.
2D	-ut	2.d	.
1BB	ro-	.	.
.	.	4c	.
=6	=6	=6	=6
.	.	1B	.
2E.	.	.	.
.	.	1G	-sa
4D	.	.	.
2C	.	.	.
=7	=7	=7	=7
2BB	-sa	2.d	in-
2GG.	in-	.	.
.	.	4c	.
.	.	4B	.
4AA	.	4A	.
2BB	.	1G	.
=8	=8	=8	=8
2C	-ter	.	.
2D.	spi-	2F	-ter
.	.	1E	spi-
8CL	.	.	.
8BBJ	.	.	.
2C	.	.	.
=9	=9	=9	=9
0D	-nas	2D	-nas
.	.	1A	il-
.	.	2B	-lis
=10	=10	=10	=10
2r	.	1c	ad-
1E	il-	.	.
.	.	2B	-dit
2F#X	-lis	2d.	spe-
=11	=11	=11	=11
1G	ad-	.	.
.	.	4c	.
.	.	4B	.
.	.	4A	.
2E	-dit	4G	.
.	.	4F	.
2G.	spe-	4E	.
.	.	4D	.
=12	=12	=12	=12
.	.	2C	.
4F	.	.	.
4E	.	2C	-ci-
4D	.	.	.
2C	.	1G	-em,
2BB	-ci-	.	.
=13	=13	=13	=13
0C	-em,	2r	.
.	.	1G	sic
.	.	2E	ve-
=14	=14	=14	=14
2r	.	1G	-nu-
1C	sic	.	.
.	.	2A	-stat
2AA	ve-	2c.	su-
=15	=15	=15	=15
1C	-nu-	.	.
.	.	4B	.
.	.	4A	.
.	.	4G	.
2D	-stat	2B-X	.
2F.	su-	2A	-am
=16	=16	=16	=16
.	.	1A	Vir-
4E	.	.	.
4D	.	.	.
4C	.	.	.
2BB-X	.	2D	-go
2AA	am	2F	Ma-
=17	=17	=17	=17
1AA	Vir-	2E	-ri-
.	.	2F	-a
2E	-go	1G	pro-
2C	Ma-	.	.
=18	=18	=18	=18
2BB	-ri-	2.G	-ge-
2C	-a	.	.
.	.	4A	.
1D	pro-	2B-X	.
.	.	2A	-ni-
=19	=19	=19	=19
2D	-ge-	2F	-em,
2AA	-ni-	2c	Ma-
1E	-em,	2Bni	-ri-
.	.	2c	-a
=20	=20	=20	=20
2r	.	2d	pro-
2F	Ma-	2c.	-ge-
2E	-ri-	.	.
.	.	4B	.
2F	-a	1d	.
=21	=21	=21	=21
1G	pro-	.	.
.	.	4c	.
.	.	4B	.
2F	-ge-	4d	.
.	.	4A	.
2E	-ni-	1c	.
=22	=22	=22	=22
1D	-em:	.	.
.	.	2B	-ni-
2r	.	1c	-em:
2AA	ger-	.	.
=23	=23	=23	=23
2BB	-mi-	2r	.
1C	-na-	2G	ger-
.	.	2A	-mi-
2GG	-vit	1B-	-na-
=24	=24	=24	=24
1D	e-	.	.
.	.	2F	-vit
2E	-nim	1c	e-
2F.	flo-	.	.
=25	=25	=25	=25
.	.	2d	-nim
8EL	.	.	.
8DJ	.	.	.
4C	.	2e.	flo-
4D	.	.	.
4E	.	.	.
4F	.	8dL	.
.	.	8cJ	.
2G.	.	4B	.
.	.	4c	.
=26	=26	=26	=26
.	.	4d	.
4F	.	4A	.
4F	.	2d.	.
8EL	.	.	.
8DJ	.	.	.
1E	.	.	.
.	.	8cL	.
.	.	8BJ	.
.	.	2c	.
=27	=27	=27	=27
1D	-rem,	0d	-rem,
2r	.	.	.
2G	qui	.	.
=28	=28	=28	=28
2A	vi-	2r	.
2G.	-ta-	2d	qui
.	.	2e	vi-
4E	.	.	.
2F#X	.	2d.	-ta-
=29	=29	=29	=29
2G	-lem	.	.
.	.	4B	.
2A	dat	2c#X	.
2F	o-	2d	lem
2C.	-do-	2e	dat
=30	=30	=30	=30
.	.	2c	o-
4D	.	.	.
4E	.	4G	-do-
4F	.	4A	.
1G	.	4B	.
.	.	4c	.
.	.	2d	.
=31	=31	=31	=31
2E	-rem,	1G	-rem,
2C	qui	.	.
2D	vi-	2r	.
2C.	-ta-	2G	qui
=32	=32	=32	=32
.	.	2A	vi-
4AA	.	.	.
2BB	.	2G.	-ta-
2C	-lem	.	.
.	.	4E	.
2D	dat	2F#X	.
=33	=33	=33	=33
2E	o-	2G	-lem
2F.	-do-	2A	dat
.	.	1c	o-
4E	.	.	.
2A.	.	.	.
=34	=34	=34	=34
.	.	2.B	-do-
4G	.	.	.
2G.	.	.	.
.	.	8AL	.
.	.	8GJ	.
.	.	1A	.
8F#XL	.	.	.
8EJ	.	.	.
2F#	.	.	.
=35	=35	=35	=35
0G	-rem.	0G	-rem.
==	==	==	==
*-	*-	*-	*-
!!!RDF**kern: l = terminal long
!!!RDF**kern: i = editorial accidental
!!!PDT: 1590
!!!PED: Adam Berg
!!!AGN: Motet; Bicinium
!!!YOR: https://mdz-nbn-resolving.de/details:bsb00090897
!!!YOO: München, Bayerische Staatsbibliothek
!!!URL-scan: https://www.digitale-sammlungen.de/view/bsb00090897?page=15 Tenor
!!!URL-scan: https://www.digitale-sammlungen.de/view/bsb00090897?page=55 Bassus
!!!IIIF: https://api.digitale-sammlungen.de/iiif/presentation/v2/bsb00090897/manifest
!!!EED: Mirko Sattig
!!!END: 2023/11/24
!!!ENC: Mirko Sattig
!!!EEV: 2024/02/10
!!!title: @{ONM}. @{OTL}
!!!system-decoration: [s1,s2]